!!!!SEGMENT: pl-kk--kk-i-3--044_anonim--tollite-portas.krn
!!!cenid: 15xx:654
!!!COM: Anonim
!!!COM-rismID: pe30004985
!!!CDT:
!!!CNT:
!!!OTL: Tollite portas
!!!PDT:
!!!AGN:
!!!SMS-siglum: PL-Kk
!!!SMS-shelfmark: Kk.I.3
!!!SMS-shelfwork: 044 W
!!!SMS-variant:
!!!SMS-altvar:
!!!NIFC-rismSourceID: 1001145493
!!!NIFC-islandoraID: pl-kk:1170
!!!URL-pdf-islandora: https://repozytorium.nifc.pl/islandora/object/pl-kk%3A1170/datastream/PDF/view
!!!URL-scan: https://polish.musicsources.pl/pl/lokalizacje/galeria/rekopisy/5919 @EN{Scan on Polish Music Sources Website} @PL{Skany w portalu Dziedzictwo Muzyki Polskiej w otwartym dostępie}
!!!ONB-nifc: UWAGA: Discantus (s. 125v-127r, skan 0128-0129), Tenor (s. 94r-96r, skan 0266-0268), Bassus (s. 120v-122v, skan 0424-0426)
!!!AIN: 1 bass 1 soprn 1 tenor
!!!key: C:ion
**kern	**text	**kern	**text	**kern	**text
*group1	*	*group1	*	*group1	*
*part3	*part3	*part2	*part2	*part1	*part1
*staff3	*staff3	*staff2	*staff2	*staff1	*staff1
*I"[Bassus]	*	*I"[Tenor]	*	*I"[Discantus]	*
*I'[B]	*	*I'[T]	*	*I'[S]	*
*Ibass	*	*Itenor	*	*Isoprn	*
*ICvox	*	*ICvox	*	*ICvox	*
*clefF4	*	*clefC4	*	*clefC3	*
*k[]	*	*k[]	*	*k[]	*
*C:ion	*	*C:ion	*	*C:ion	*
*M2/1	*	*M2/1	*	*M2/1	*
*met(C|)	*	*met(C|)	*	*met(C|)	*
=1-	=1-	=1-	=1-	=1-	=1-
!LO:TX:t=P:problem=all\middle&colon; global	!	!LO:TX:t=P:problem=all\middle&colon; global	!	!LO:TX:t=P:problem=all\middle&colon; global	!
1r	.	00r	.	0r	.
*lig	*	*	*	*	*
1C	Tol-	.	.	.	.
=2-	=2-	=2-	=2-	=2-	=2-
*	*	*	*	*lig	*
1F	.	.	.	1c	Tol-
*Xlig	*	*	*	*	*
1D	.	.	.	1f	.
*	*	*	*	*Xlig	*
=3-	=3-	=3-	=3-	=3-	=3-
*2\right	*	*	*	*	*
2D/	-li-	00r	.	1d	.
1D,<	te	.	.	.	.
*	*	*	*	*2\right	*
.	.	.	.	2d/	-li-
1F	por-	.	.	1d	-te
=4-	=4-	=4-	=4-	=4-	=4-
.	.	.	.	.	.
4E/	.	.	.	1f	.
4D/	.	.	.	.	.
2F\	.	.	.	.	.
*custos:G	*	*	*	*	*
!LO:PB:g=original	!	!	!	!	!
1G	.	.	.	4e/	por-
.	.	.	.	4d/	.
=5-	=5-	=5-	=5-	=5-	=5-
.	.	00r	.	2e	.
2F/	.	.	.	2f	.
2.G\	.	.	.	1d	.
4F/	.	.	.	.	.
=6-	=6-	=6-	=6-	=6-	=6-
2E/	.	.	.	2c/	.
*	*	*	*	*custos:f	*
!	!	!	!	!LO:LB:g=original	!
2D/	.	.	.	2.f	.
2F\	.	.	.	.	.
.	.	.	.	4e\	.
2G\	.	.	.	2.d/	.
=7-	=7-	=7-	=7-	=7-	=7-
1E	.	0r	.	.	.
.	.	.	.	4c/	.
.	.	.	.	1g	.
1D	.	.	.	.	.
.	.	.	.	2f\	.
=8-	=8-	=8-	=8-	=8-	=8-
*	*	*lig	*	*	*
2GG/	tas	1G	Tol-	1g	tas
*lig	*	*	*	*	*
1C	Tol-	.	.	.	.
.	.	1c	.	00r	.
1AA	.	.	.	.	.
*Xlig	*	*Xlig	*	*	*
=9-	=9-	=9-	=9-	=9-	=9-
.	.	1A	-li-	.	.
2AA	-li-	.	.	.	.
*	*	*2\right	*	*	*
2AA	-te	2A/	-te	.	.
1C	por-	1A,>	.	.	.
=10-	=10-	=10-	=10-	=10-	=10-
.	.	.	.	.	.
4BB	.	1c	por-	.	.
4AA	.	.	.	.	.
*custos:C	*	*	*	*	*
!LO:LB:g=original	!	!	!	!	!
2C	.	.	.	00r	.
2D/	.	4B/	.	.	.
.	.	4A/	.	.	.
=11-	=11-	=11-	=11-	=11-	=11-
2BB/	.	2B/	.	.	.
2.AA/	.	2c/	.	.	.
.	.	1A	.	.	.
4BB/	.	.	.	.	.
4C/	.	.	.	.	.
4D/	.	.	.	.	.
*	*	*custos:G	*	*	*
!	!	!LO:PB:g=original	!	!	!
=12-	=12-	=12-	=12-	=12-	=12-
*	*	*clefC3	*	*	*
2E/	.	2G/	.	.	.
2AA/	.	2.c/	.	.	.
2C/	.	.	.	0r	.
.	.	4B/	.	.	.
2D/	.	1A	.	.	.
=13-	=13-	=13-	=13-	=13-	=13-
1E	.	.	.	.	.
.	.	2G/	.	.	.
*	*	*	*	*lig	*
1D	-tas	0.A	-tas	1f	prin-
=14-	=14-	=14-	=14-	=14-	=14-
*lig	*	*	*	*	*
1F	prin-	.	.	1d	.
*	*	*	*	*Xlig	*
1D	.	.	.	2.f	.
.	.	.	.	4g	.
*Xlig	*	*	*	*	*
=15-	=15-	=15-	=15-	=15-	=15-
*lig	*	*	*	*	*
1F	.	0r	.	1a	.
1G	.	.	.	1g	.
*Xlig	*	*	*	*	*
=16-	=16-	=16-	=16-	=16-	=16-
1A	.	1c	prin-	2e/	.
.	.	.	.	2.f\	.
*custos:F	*	*	*	*	*
!LO:LB:g=original	!	!	!	!	!
*lig	*	*lig	*	*	*
1F	-ci-	1A	.	.	.
.	.	.	.	4e/	.
*	*	*	*	*custos:d	*
!	!	!	!	!LO:LB:g=original	!
.	.	.	.	2.d/	.
=17-	=17-	=17-	=17-	=17-	=17-
1E	.	1c	.	.	.
.	.	.	.	4c/	.
.	.	.	.	1c	.
*Xlig	*	*	*	*	*
!	!	!LO:TX:a:t=z	!	!	!
1D	.	0d	.	.	.
.	.	.	.	4B	.
.	.	.	.	4A/	.
*	*	*Xlig	*	*	*
=18-	=18-	=18-	=18-	=18-	=18-
*lig	*	*	*	*	*
1D	-pes	.	.	1B	-ci-
1C	.	1e	.	0c	-pes
*Xlig	*	*	*	*	*
=19-	=19-	=19-	=19-	=19-	=19-
*lig	*	*lig	*	*	*
1F	.	1c	-ci-	.	.
1D	.	1B	.	1d	.
*Xlig	*	*Xlig	*	*	*
=20-	=20-	=20-	=20-	=20-	=20-
1C	.	1A	.	0e	.
1C	ve-	1A	-pes	.	.
=21-	=21-	=21-	=21-	=21-	=21-
2BB/	.	2G/	.	00r	.
*	*	*custos:c	*	*	*
!	!	!LO:LB:g=original	!	!	!
2C/	.	1c	.	.	.
1D	.	.	.	.	.
.	.	2B/	.	.	.
=22-	=22-	=22-	=22-	=22-	=22-
0C	.	1A	.	.	.
.	.	2G/	.	.	.
.	.	1G	.	.	.
=23-	=23-	=23-	=23-	=23-	=23-
1D	.	.	.	1r	.
.	.	4F/	.	.	.
.	.	4E/,<	.	.	.
*lig	*	*	*	*	*
1D	.	1F	ve-	1.d	ve-
=24-	=24-	=24-	=24-	=24-	=24-
1BB	.	1G	.	.	.
.	.	.	.	4c/	.
.	.	.	.	4B/	.
*Xlig	*	*	*	*	*
1C	.	1A	.	2A/	.
.	.	.	.	2.e/	.
=25-	=25-	=25-	=25-	=25-	=25-
1D	.	1B	.	.	.
.	.	.	.	4d/	.
.	.	.	.	2d/	.
*custos:E	*	*	*	*	*
!LO:LB:g=original	!	!	!	!	!
2E/	.	2c/	.	0c	.
1F	.	1A	.	.	.
=26-	=26-	=26-	=26-	=26-	=26-
.	.	.	.	.	.
2E/	.	2G/	.	.	.
*	*	*	*	*custos:d	*
!	!	!	!	!LO:LB:g=original	!
*	*	*lig	*	*	*
1D	.	1A	.	1d	.
=27-	=27-	=27-	=27-	=27-	=27-
1C	-stras	1c	.	1e	.
!	!	!LO:TX:a:t=z	!	!	!
1r	.	0d	.	00f\	.
*	*	*Xlig	*	*	*
=28-	=28-	=28-	=28-	=28-	=28-
1D	.	.	.	.	.
*	*	*custos:c	*	*	*
!	!	!LO:LB:g=original	!	!	!
0F	.	1c	.	.	.
=29-	=29-	=29-	=29-	=29-	=29-
.	.	2A/	.	.	.
.	.	1c	.	.	.
2E/	.	.	.	2g\	.
2F/	.	4B/	.	1f	.
.	.	4A/	.	.	.
=30-	=30-	=30-	=30-	=30-	=30-
1G	.	1B	.	.	.
.	.	.	.	2e\	.
1F	.	0A	-stras	1f	.
=31-	=31-	=31-	=31-	=31-	=31-
2D/	.	.	.	2f\	.
1F	.	.	.	4e\	.
.	.	.	.	4d/	.
.	.	00r	.	2c/	.
4E/	.	.	.	1d	.
4D/	.	.	.	.	.
=32-	=32-	=32-	=32-	=32-	=32-
1E	.	.	.	.	.
.	.	.	.	2c/	.
*custos:D	*	*	*	*	*
!LO:LB:g=original	!	!	!	!	!
1.D	.	.	.	2d/	.
*	*	*	*	*lig	*
.	.	.	.	1f	.
=33-	=33-	=33-	=33-	=33-	=33-
.	.	.	.	.	.
2C/	.	.	.	1e	.
1D	.	1r	.	.	.
*	*	*	*	*Xlig	*
*	*	*	*	*custos:d	*
!	!	!	!	!LO:PB:g=original	!
.	.	.	.	2d/	.
=34-	=34-	=34-	=34-	=34-	=34-
0AA	.	1c	et	4e/	.
.	.	.	.	4d/	.
.	.	.	.	4c/	.
.	.	.	.	4B/	.
.	.	1c	e-	1A	-stras
=35-	=35-	=35-	=35-	=35-	=35-
*	*	*lig	*	*	*
00r	.	1c	-le-	2r	.
.	.	.	.	1A	et
.	.	1d	.	.	.
.	.	.	.	2A/	e-
*	*	*Xlig	*	*	*
=36-	=36-	=36-	=36-	=36-	=36-
.	.	1d	-va-	2.B/	-le-
.	.	.	.	4c/	-va-
*	*	*lig	*	*	*
.	.	1B	.	1d	.
=37-	=37-	=37-	=37-	=37-	=37-
*	*	*col	*	*	*
00r	.	2.c	.	1G	.
*	*	*Xlig	*	*	*
.	.	4B/	.	.	.
*	*	*Xcol	*	*	*
.	.	2A/	.	2A/	.
.	.	2G/	.	2.B/	.
*	*	*custos:A	*	*	*
!	!	!LO:LB:g=original	!	!	!
=38-	=38-	=38-	=38-	=38-	=38-
.	.	2A/	.	.	.
.	.	.	.	4A/	.
.	.	2c/	.	1A	.
.	.	1B	-mi-	.	.
*	*	*	*	*custos:G	*
!	!	!	!	!LO:LB:g=original	!
.	.	.	.	2G/	.
=39-	=39-	=39-	=39-	=39-	=39-
0r	.	1A	-ni	4A/	.
.	.	.	.	4B/	.
.	.	.	.	4c/	.
.	.	.	.	4d/	.
*	*	*lig	*	*	*
.	.	1c	por-	1e	-mi-
=40-	=40-	=40-	=40-	=40-	=40-
1r	.	1A	.	00f\	-ni
*lig	*	*Xlig	*	*	*
*	*ij	*lig	*	*	*
1F	Tol-	1c	.	.	.
=41-	=41-	=41-	=41-	=41-	=41-
1D	.	1d	.	.	.
*Xlig	*	*Xlig	*	*	*
*lig	*	*	*	*	*
1F	-li-	1A	.	.	.
=42-	=42-	=42-	=42-	=42-	=42-
1G	.	0d	.	2d/	por-
.	.	.	.	1g	.
*Xlig	*	*	*	*	*
1D	-te	.	.	.	.
.	.	.	.	2f\	.
=43-	=43-	=43-	=43-	=43-	=43-
1G	por-	1e	.	2.g\	.
.	.	.	.	4f\	.
2A\	.	2.c/	.	2e\	.
1F	.	.	.	2f\	.
.	.	4B/	.	.	.
=44-	=44-	=44-	=44-	=44-	=44-
.	.	2A/	.	2d/	.
2E/	.	1G	.	1c	.
1D	.	.	.	.	.
*	*	*	*	*custos:B	*
!	!	!	!	!LO:LB:g=original	!
.	.	2F/	.	2B/	.
=45-	=45-	=45-	=45-	=45-	=45-
1C	-tas	1G	-te	0c	-te
*	*	*custos:A	*	*	*
!	!	!LO:LB:g=original	!	!	!
1r	.	1A	e-	.	.
=46-	=46-	=46-	=46-	=46-	=46-
*	*	*lig	*	*	*
0r	.	1A	-ter-	1r	.
.	.	1G	.	2.g\	e-
.	.	.	.	4f\	-ter-
*	*	*Xlig	*	*	*
*custos:D	*	*	*	*	*
!LO:PB:g=original	!	!	!	!	!
=47-	=47-	=47-	=47-	=47-	=47-
*clefF3	*	*	*	*	*
!LO:TX:t=P:problem=pod nutami pojawia się symbol repetycji tekstu słownego; nie wiadomo jednak jaka część tekstu się powtarza. W transkrypcji przyjęto całość tekstu od początku utworu (bez powtórki Tollite portas)	!	!	!	!	!
1D	prin-	0A	.	2f\	.
.	.	.	.	2.g\	.
*lig	*	*	*	*	*
1D	-ci-	.	.	.	.
.	.	.	.	4e\	.
.	.	.	.	2f\	.
=48-	=48-	=48-	=48-	=48-	=48-
1C	.	1c	.	1g	.
*Xlig	*	*lig	*	*	*
2D/	.	1A	na-	0f	.
1F	.	.	.	.	.
=49-	=49-	=49-	=49-	=49-	=49-
.	.	1c	.	.	.
4E/	.	.	.	.	.
4D/	.	.	.	.	.
*	*	*Xlig	*	*	*
*	*	*lig	*	*	*
2E/	.	1c	-les	2g\	.
2.F/	.	.	.	1f	.
=50-	=50-	=50-	=50-	=50-	=50-
.	.	1A	.	.	.
4G/	.	.	.	.	.
2.A\	.	.	.	1e	.
*	*	*Xlig	*	*	*
*	*	*lig	*	*	*
.	.	1c	.	.	.
4B\	.	.	.	.	.
1c	.	.	.	2f\	.
*	*	*	*	*custos:g	*
!	!	!	!	!LO:LB:g=original	!
=51-	=51-	=51-	=51-	=51-	=51-
.	.	1d	.	1g	.
2B\	.	.	.	.	.
*	*	*Xlig	*	*	*
*custos:c	*	*	*	*	*
!LO:LB:g=original	!	!	!	!	!
2c\	-pes	1c	.	2.e\	.
4B\	ve-	.	.	.	.
4A\	.	.	.	4f\	.
=52-	=52-	=52-	=52-	=52-	=52-
4B\	.	2d/	.	4g\	.
4A\	.	.	.	4c/	.
4G/	.	1e	.	1g	.
4F/	.	.	.	.	.
4E/	.	.	.	.	.
4D/	.	.	.	.	.
1G	.	4d/	.	4f\	.
.	.	4c/	.	4e\	.
=53-	=53-	=53-	=53-	=53-	=53-
.	.	2B/	.	2d/	.
2E/	.	2c/	.	2g\	.
*	*	*custos:d	*	*	*
!	!	!LO:PB:g=original	!	!	!
2F/	.	1d	.	1f	.
2G/	.	.	.	.	.
=54-	=54-	=54-	=54-	=54-	=54-
2A/	-stras	1c	.	2e\	.
*	*Xij	*	*	*	*
1F	et	.	.	2f\	.
.	.	2r	.	1g	.
2E/	in-	1c	et	.	.
=55-	=55-	=55-	=55-	=55-	=55-
2F/	-tro-	.	.	2f\	-na-
*	*	*	*	*custos:d	*
!	!	!	!	!LO:LB:g=original	!
2G/	.	2B/	in-	2d/	-les
*custos:A	*	*	*	*	*
!LO:LB:g=original	!	!	!	!	!
2A\	i-	2c/	-tro-	0r	.
2B\	.	2d/	.	.	.
=56-	=56-	=56-	=56-	=56-	=56-
2.c\	.	2.e/	.	.	.
!	!	!LO:TX:a:t=x	!	!	!
4B\	.	4d/	.	.	.
2A\	.	2c/	.	2r	.
2G/	.	1B	.	1g	et
=57-	=57-	=57-	=57-	=57-	=57-
2E/	.	.	.	.	.
2F/	.	1d	.	2f\	in-
2G/	.	.	.	1e	-tro-
2A/	.	2c/	.	.	.
=58-	=58-	=58-	=58-	=58-	=58-
2D/	.	2d/	.	2f\	.
2E/	.	1c	.	2e/	.
2F/	.	.	.	1d	.
2G/	.	2B/	.	.	.
*	*	*custos:A	*	*	*
!	!	!LO:LB:g=original	!	!	!
=59-	=59-	=59-	=59-	=59-	=59-
2C/	.	1A	-bit	2c/	-i-
1D	-bit	.	.	1A	-bit
.	.	2A/	.	.	.
2E/	.	1c	.	2G/	.
*custos:F	*	*	*	*	*
!LO:LB:g=original	!	!	!	!	!
=60-	=60-	=60-	=60-	=60-	=60-
2.F/	.	.	.	1F	.
.	.	2A/	.	.	.
4E/	.	.	.	.	.
2C/	.	2G/	.	2E/	.
2.c\	.	2.A/	.	2.e\	.
=61-	=61-	=61-	=61-	=61-	=61-
.	.	.	.	.	.
4B\	.	4B/	.	4d/	.
4A/	.	2c/	.	2e\	.
4G/	.	.	.	.	.
*	*	*	*	*custos:f	*
!	!	!	!	!LO:PB:g=original	!
2F/	.	2A/	.	2f\	.
2E/	.	1c	.	2g\	.
=62-	=62-	=62-	=62-	=62-	=62-
1D	.	.	.	2a\	.
.	.	4B/	.	4g\	.
.	.	4A/	.	4f\	.
*	*	*lig	*	*	*
2C/	.	1c	.	2e/	.
2AA/	.	.	.	2c/	.
=63-	=63-	=63-	=63-	=63-	=63-
2BB/	.	1G	.	2d/	.
2C/	.	.	.	2e/	.
*	*	*Xlig	*	*	*
1FF	.	1F	.	1f	.
=64-	=64-	=64-	=64-	=64-	=64-
*	*	*lig	*	*	*
2r	.	1F	rex	0r	.
1F	rex	.	.	.	.
.	.	1G	.	.	.
2E/	.	.	.	.	.
*	*	*Xlig	*	*	*
=65-	=65-	=65-	=65-	=65-	=65-
1D	.	1A	.	2r	.
.	.	.	.	1f	rex
*	*	*lig	*	*	*
*custos:C	*	*custos:c	*	*	*
!LO:LB:g=original	!	!LO:LB:g=original	!	!	!
1C	.	1c	.	.	.
.	.	.	.	2e/	.
=66-	=66-	=66-	=66-	=66-	=66-
2G\	.	1B	.	2d/	.
2GG/	.	.	.	1g	.
*	*	*Xlig	*	*	*
1D	.	1A	.	.	.
.	.	.	.	2f\	.
=67-	=67-	=67-	=67-	=67-	=67-
2C/	.	1c	.	2e/	.
*	*	*	*	*custos:c	*
!	!	!	!	!LO:LB:g=original	!
1c	glo-	.	.	2c/	.
*	*	*lig	*	*	*
.	.	1G	.	1d	.
2B\	.	.	.	.	.
=68-	=68-	=68-	=68-	=68-	=68-
2.A\	.	1A	.	2.c/	.
4G/	.	.	.	4B/	.
*	*	*Xlig	*	*	*
*	*	*lig	*	*	*
2F/	.	1c	glo-	2A/	.
2E/	.	.	.	1G	.
=69-	=69-	=69-	=69-	=69-	=69-
1D	.	1A	.	.	.
.	.	.	.	2F/	.
*	*	*Xlig	*	*	*
*	*	*lig	*	*	*
1C	.	1c	-ri-	1G	.
=70-	=70-	=70-	=70-	=70-	=70-
1G	.	1d	-e	2r	.
.	.	.	.	2g\	glo-
*	*	*Xlig	*	*	*
*	*	*lig	*	*	*
2F/	.	1d	.	2a\	.
2G/	.	.	.	2.g\	.
=71-	=71-	=71-	=71-	=71-	=71-
2E/	.	1c	.	.	.
.	.	.	.	4f\	.
*custos:C	*	*	*	*	*
!LO:PB:g=original	!	!	!	!	!
2C	.	.	.	2e\	.
*lig	*	*Xlig	*	*	*
*	*	*lig	*	*	*
1G	.	1d	.	2d/	.
.	.	.	.	1g	.
=72-	=72-	=72-	=72-	=72-	=72-
1C	.	1e	.	.	.
.	.	.	.	2g\	.
*Xlig	*	*	*	*	*
*lig	*	*	*	*	*
*	*	*	*	*custos:a	*
!	!	!	!	!LO:LB:g=original	!
1D	-ri-	1d	.	1a	.
*	*	*Xlig	*	*	*
=73-	=73-	=73-	=73-	=73-	=73-
1GG	.	00c\;l	.	1g	-ri-
*Xlig	*	*	*	*	*
[1C/;>l	-e	.	.	[1e\;<l	-e
=74-	=74-	=74-	=74-	=74-	=74-
0C\]	.	.	.	0e]	.
=75-	=75-	=75-	=75-	=75-	=75-
*lig	*	*	*	*	*
1.D	Quis	1A	Quis	00r	.
*	*	*lig	*	*	*
.	.	1A	as-	.	.
*col	*	*	*	*	*
2.F	.	.	.	.	.
*Xlig	*	*	*	*	*
=76-	=76-	=76-	=76-	=76-	=76-
.	.	1c	.	.	.
4E/	.	.	.	.	.
4D/	as-	.	.	.	.
4C/	-cen-	.	.	.	.
*Xcol	*	*Xlig	*	*	*
1D	-det	1B	.	.	.
*	*	*custos:c	*	*	*
!	!	!LO:LB:g=original	!	!	!
=77-	=77-	=77-	=77-	=77-	=77-
*	*	*lig	*	*	*
1C	.	1c	-cen-	00r	.
2r	.	1d	.	.	.
2G/	in	.	.	.	.
*	*	*Xlig	*	*	*
=78-	=78-	=78-	=78-	=78-	=78-
2F/	mon-	1d	-det	.	.
2G/	-tem	.	.	.	.
*custos:D	*	*	*	*	*
!LO:LB:g=original	!	!	!	!	!
2D/	.	1d	in	.	.
2.B\	.	.	.	.	.
=79-	=79-	=79-	=79-	=79-	=79-
.	.	1d	mon-	00r	.
4A\	.	.	.	.	.
1G	.	.	.	.	.
*	*	*lig	*	*	*
.	.	1d	-tem	.	.
2F/	.	.	.	.	.
=80-	=80-	=80-	=80-	=80-	=80-
2E/	.	1c	.	.	.
2F/	.	.	.	.	.
*	*	*Xlig	*	*	*
*	*	*lig	*	*	*
1D	.	1d	do	.	.
=81-	=81-	=81-	=81-	=81-	=81-
1C	.	1e	.	00r	.
*	*	*Xlig	*	*	*
*	*	*lig	*	*	*
2r	.	1f	.	.	.
2D/	do-	.	.	.	.
=82-	=82-	=82-	=82-	=82-	=82-
2F/	.	1d	.	.	.
2G/	.	.	.	.	.
*	*	*Xlig	*	*	*
2C/	.	2c/	.	.	.
2.F/	.	1c	mi-	.	.
=83-	=83-	=83-	=83-	=83-	=83-
.	.	.	.	00r	.
4E/	.	.	.	.	.
2D/	.	2d/	.	.	.
2C/	.	2e/	.	.	.
2BB/	.	2d/	.	.	.
*custos:AA	*	*	*	*	*
!LO:LB:g=original	!	!	!	!	!
=84-	=84-	=84-	=84-	=84-	=84-
2AA/	.	2e/	.	.	.
*	*	*lig	*	*	*
2.A\	.	1e	-ni	.	.
4G/	.	.	.	.	.
2F/	.	1f	.	.	.
*	*	*Xlig	*	*	*
=85-	=85-	=85-	=85-	=85-	=85-
2D/	.	.	.	00r	.
*	*	*custos:e	*	*	*
!	!	!LO:LB:g=original	!	!	!
2E/	.	2e\	.	.	.
2F/	.	2c/	.	.	.
*	*	*lig	*	*	*
4C/	.	1e	.	.	.
4D/	.	.	.	.	.
=86-	=86-	=86-	=86-	=86-	=86-
4E/	.	.	.	.	.
4F/	.	.	.	.	.
2G/	.	1d	.	.	.
2.D/	.	.	.	.	.
*	*	*Xlig	*	*	*
.	.	1f	.	.	.
4E/	.	.	.	.	.
=87-	=87-	=87-	=87-	=87-	=87-
4F/	.	.	.	00r	.
4G/	.	.	.	.	.
2A\	.	2e\	.	.	.
2B\	.	2d/	.	.	.
*custos:F	*	*	*	*	*
!LO:LB:g=original	!	!	!	!	!
2F/	.	1f	.	.	.
=88-	=88-	=88-	=88-	=88-	=88-
1B	-mi-	.	.	.	.
.	.	4e/	.	.	.
.	.	4d/	.	.	.
1A	-ni	1e	.	.	.
=89-	=89-	=89-	=89-	=89-	=89-
2r	.	1d	.	00r	.
1G	aut	.	.	.	.
.	.	1r	.	.	.
1B	quis	.	.	.	.
=90-	=90-	=90-	=90-	=90-	=90-
.	.	1d	aut	.	.
2G/	.	.	.	.	.
*lig	*	*lig	*	*	*
1A	.	1f	quis	.	.
=91-	=91-	=91-	=91-	=91-	=91-
1B	.	1d	.	00r	.
*Xlig	*	*Xlig	*	*	*
1A	.	2e/	.	.	.
.	.	1f	.	.	.
=92-	=92-	=92-	=92-	=92-	=92-
1G	sta-	.	.	.	.
*	*	*custos:e	*	*	*
!	!	!LO:PB:g=original	!	!	!
.	.	2e/	sta-	.	.
1G	-bit	1d	-bit	.	.
=93-	=93-	=93-	=93-	=93-	=93-
1r	.	1d	.	00r	.
1G	in	2r	.	.	.
.	.	2d/	in	.	.
=94-	=94-	=94-	=94-	=94-	=94-
1G	lo-	2e/	lo-	.	.
.	.	2d/	-co	.	.
1G	-co	2.g\	.	.	.
.	.	4f/	.	.	.
=95-	=95-	=95-	=95-	=95-	=95-
1G	san-	2e/	.	00r	.
.	.	2d/	.	.	.
*custos:G	*	*	*	*	*
!LO:LB:g=original	!	!	!	!	!
*lig	*	*	*	*	*
*clefF4	*	*	*	*	*
1G	-cto	1g	san-	.	.
=96-	=96-	=96-	=96-	=96-	=96-
1A	e-	2f\	-cto	.	.
.	.	1e	.	.	.
*Xlig	*	*	*	*	*
*lig	*	*	*	*	*
1A	.	.	.	.	.
.	.	4d/	.	.	.
.	.	4c/	.	.	.
=97-	=97-	=97-	=97-	=97-	=97-
1F	.	1d	.	00r	.
*Xlig	*	*clefC4	*	*	*
*	*	*custos:c	*	*	*
!	!	!LO:LB:g=original	!	!	!
1A	.	1c	.	.	.
=98-	=98-	=98-	=98-	=98-	=98-
2G	.	2B/	.	.	.
1F	.	2.A/	.	.	.
.	.	4G/	.	.	.
2D/	.	4F/	.	.	.
.	.	4E/	.	.	.
=99-	=99-	=99-	=99-	=99-	=99-
*lig	*	*	*	*	*
1F	.	1D	.	00r	.
1D	.	2r	.	.	.
.	.	2.d\	.	.	.
*Xlig	*	*	*	*	*
=100-	=100-	=100-	=100-	=100-	=100-
*lig	*	*	*	*	*
1F	.	.	.	.	.
.	.	4e\	.	.	.
.	.	4f\	.	.	.
.	.	4e\	.	.	.
1G	.	4d\	.	.	.
.	.	4c\	.	.	.
.	.	2d\	.	.	.
*Xlig	*	*	*	*	*
=101-	=101-	=101-	=101-	=101-	=101-
1A	.	1c	.	00r	.
*	*	*lig	*	*	*
1G	.	1e	.	.	.
=102-	=102-	=102-	=102-	=102-	=102-
1F	.	1d	.	.	.
*	*	*Xlig	*	*	*
*	*	*custos:c	*	*	*
!	!	!LO:LB:g=original	!	!	!
1A	.	1c	.	.	.
=103-	=103-	=103-	=103-	=103-	=103-
1G	.	1e	.	00r	.
1F	.	2d\	.	.	.
.	.	1c	.	.	.
=104-	=104-	=104-	=104-	=104-	=104-
2.G\	.	.	.	.	.
.	.	2B/	.	.	.
4F\	.	.	.	.	.
*custos:D	*	*	*	*	*
!LO:PB:g=original	!	!	!	!	!
2D/	.	2A/	.	.	.
2F/	.	1d	.	.	.
=105-	=105-	=105-	=105-	=105-	=105-
1E	.	.	.	00r	.
.	.	2c\	.	.	.
1D	.	2.d\	.	.	.
.	.	4c/	.	.	.
=106-	=106-	=106-	=106-	=106-	=106-
2r	.	2A/	.	.	.
2C/	.	2c/	.	.	.
2D/	.	1B	.	.	.
2E/	.	.	.	.	.
=107-	=107-	=107-	=107-	=107-	=107-
2.F/	.	0A	ius	0r	.
4E/	.	.	.	.	.
2C/	.	.	.	.	.
2D/	.	.	.	.	.
=108-	=108-	=108-	=108-	=108-	=108-
1BB	.	1r	.	1r	.
0AA	-ius	1c	in	2.A/	In-
.	.	.	.	4B/	-no-
*	*	*custos:c	*	*	*
!	!	!LO:LB:g=original	!	!	!
=109-	=109-	=109-	=109-	=109-	=109-
.	.	1c	no-	4c/	.
.	.	.	.	4d/	.
.	.	.	.	4e/	.
.	.	.	.	4f\	.
*	*	*lig	*	*	*
*	*	*	*	*custos:g	*
!	!	!	!	!LO:LB:g=original	!
1r	.	1c	-cens	2g\	.
.	.	.	.	2.a\	.
=110-	=110-	=110-	=110-	=110-	=110-
00r	.	1d	.	.	.
.	.	.	.	4g\	.
.	.	.	.	4f\	.
.	.	.	.	4e/	.
*	*	*Xlig	*	*	*
*	*	*lig	*	*	*
.	.	1d	ma-	2f\	-cens
.	.	.	.	2.g\	ma-
=111-	=111-	=111-	=111-	=111-	=111-
.	.	1c	.	.	.
.	.	.	.	4f\	.
.	.	.	.	1e	.
*	*	*Xlig	*	*	*
.	.	1B	.	.	.
.	.	.	.	2d/	.
=112-	=112-	=112-	=112-	=112-	=112-
00r	.	1G	.	4e/	.
.	.	.	.	4d/	.
.	.	.	.	1g	.
*	*	*lig	*	*	*
.	.	1A	.	.	.
.	.	.	.	2f\	.
=113-	=113-	=113-	=113-	=113-	=113-
.	.	1c	.	2g\	.
*	*	*	*	*custos:G	*
!	!	!	!	!LO:LB:g=original	!
.	.	.	.	2.G	.
*	*	*Xlig	*	*	*
*	*	*lig	*	*	*
.	.	1B	.	.	.
.	.	.	.	4A	.
.	.	.	.	4B	.
.	.	.	.	4c/	.
=114-	=114-	=114-	=114-	=114-	=114-
00r	.	1G	.	4d/	.
.	.	.	.	4G/	.
.	.	.	.	2g\	.
*	*	*Xlig	*	*	*
*	*	*lig	*	*	*
.	.	1A	.	2e/	.
.	.	.	.	2.c/	.
=115-	=115-	=115-	=115-	=115-	=115-
.	.	1c	.	.	.
.	.	.	.	4d/	.
.	.	.	.	4e\	.
.	.	.	.	4f\	.
*	*	*Xlig	*	*	*
.	.	1B	.	1g	.
=116-	=116-	=116-	=116-	=116-	=116-
*	*	*lig	*	*	*
00r	.	1d	.	1a	.
*	*	*col	*	*	*
.	.	2.e	.	2g\	.
.	.	.	.	1g	.
*	*	*Xlig	*	*	*
.	.	4d\	.	.	.
*	*	*Xcol	*	*	*
=117-	=117-	=117-	=117-	=117-	=117-
.	.	2c\	.	.	.
.	.	2B/	.	2g\	-ni-
*	*	*	*	*custos:a	*
!	!	!	!	!LO:PB:g=original	!
.	.	2A/	.	2a\	.
*	*	*custos:A	*	*	*
!	!	!LO:LB:g=original	!	!	!
.	.	2A/	.	4g\	.
.	.	.	.	4f\	.
=118-	=118-	=118-	=118-	=118-	=118-
00r	.	2A/	.	2e/	.
.	.	2.c\	.	2.f/	.
.	.	4B/	.	4e/	.
.	.	1A	.	1d	.
=119-	=119-	=119-	=119-	=119-	=119-
.	.	.	.	.	.
.	.	2G/	-ni-	2c/	.
.	.	1A	-bus	1d	.
=120-	=120-	=120-	=120-	=120-	=120-
*	*	*lig	*	*lig	*
00r	.	1c	.	1e	.
.	.	1A	.	1f	.
*	*	*	*	*Xlig	*
=121-	=121-	=121-	=121-	=121-	=121-
!	!	!LO:TX:a:t=z	!	!	!
.	.	0c	.	1e	-bus
.	.	.	.	2r	.
.	.	.	.	1g	.
*	*	*Xlig	*	*	*
*custos:F	*	*	*	*	*
!LO:LB:g=original	!	!	!	!	!
=122-	=122-	=122-	=122-	=122-	=122-
00r	.	1B	.	.	.
.	.	.	.	4f\	.
.	.	.	.	4e/	.
.	.	2A/	.	2f\	.
.	.	1c	.	2g\	.
=123-	=123-	=123-	=123-	=123-	=123-
.	.	.	.	2c/	.
*	*	*	*	*custos:d	*
!	!	!	!	!LO:LB:g=original	!
.	.	4B/	.	1d	.
.	.	4A/	.	.	.
.	.	2B/	.	.	.
.	.	2c/	.	4c/	.
.	.	.	.	4B/	.
*	*	*custos:A	*	*	*
!	!	!LO:PB:g=original	!	!	!
=124-	=124-	=124-	=124-	=124-	=124-
00r	.	2A/	.	2c/	.
.	.	1B	.	2d/	.
.	.	.	.	2G/	.
.	.	4A/	.	2g\	.
.	.	4G/	.	.	.
=125-	=125-	=125-	=125-	=125-	=125-
.	.	2A/	.	2f\	.
.	.	2B/	.	2.d/	.
*	*	*lig	*	*	*
.	.	1F	.	.	.
.	.	.	.	4e/	.
.	.	.	.	1f	.
=126-	=126-	=126-	=126-	=126-	=126-
0r	.	1G	.	.	.
.	.	.	.	2e\	.
*	*	*Xlig	*	*	*
.	.	1F	.	1f	.
=127-	=127-	=127-	=127-	=127-	=127-
1r	.	1r	.	1r	.
*lig	*	*lig	*	*	*
1F	et	1F	et	2.c/	et
.	.	.	.	4d/	.
=128-	=128-	=128-	=128-	=128-	=128-
1E	.	1G	.	4e/	.
.	.	.	.	4f\	.
.	.	.	.	1g	.
*Xlig	*	*Xlig	*	*	*
*lig	*	*	*	*	*
1D	mun-	1A	.	.	.
*	*	*	*	*custos:f	*
!	!	!	!	!LO:LB:g=original	!
.	.	.	.	2f\	.
=129-	=129-	=129-	=129-	=129-	=129-
*	*	*lig	*	*	*
1C	.	1c	.	1e	.
!LO:TX:a:t=z	!	!	!	!	!
0D	.	1B	.	1.d	.
*Xlig	*	*Xlig	*	*	*
=130-	=130-	=130-	=130-	=130-	=130-
*	*	*lig	*	*	*
.	.	1A	.	.	.
.	.	.	.	2f\	.
2C/	.	1c	.	2e\	.
1F	.	.	.	2c/	.
*	*	*Xlig	*	*	*
=131-	=131-	=131-	=131-	=131-	=131-
.	.	1G	mun-	2d/	.
2E/	.	.	.	2e\	.
1D	.	1A	-do	1f	.
*	*	*custos:c	*	*	*
!	!	!LO:LB:g=original	!	!	!
=132-	=132-	=132-	=132-	=132-	=132-
*	*	*lig	*	*	*
1C	.	1c	cor-	1e	mun-
*lig	*	*	*	*lig	*
1D	-do	1A	.	1d	-do
*	*	*Xlig	*	*	*
=133-	=133-	=133-	=133-	=133-	=133-
*	*	*lig	*	*	*
1C	.	1c	.	1G	.
*Xlig	*	*	*	*Xlig	*
1BB-X	cor-	1d	.	2r	.
.	.	.	.	2.d/	cor-
*	*	*Xlig	*	*	*
=134-	=134-	=134-	=134-	=134-	=134-
2GG/	.	1d	-de	.	.
.	.	.	.	4B/	.
2BB-/	.	.	.	4d/	.
.	.	.	.	4e/	.
2FF/	.	1c	.	2f\	.
*	*	*	*	*custos:F	*
!	!	!	!	!LO:LB:g=original	!
2F\	.	.	.	2.F/	.
*custos:D	*	*	*	*	*
!LO:LB:g=original	!	!	!	!	!
=135-	=135-	=135-	=135-	=135-	=135-
*	*	*lig	*	*	*
2D/	.	1d	.	.	.
.	.	.	.	4G/	.
2F/	.	.	.	4A/	.
.	.	.	.	4B/	.
1C	.	1e	.	2.c/	.
.	.	.	.	4B/	.
*	*	*Xlig	*	*	*
=136-	=136-	=136-	=136-	=136-	=136-
2r	.	1c	.	1A	.
2F\	.	.	.	.	.
2G\	.	2B/	.	2G/	.
2E/	.	2c/	.	1c	.
=137-	=137-	=137-	=137-	=137-	=137-
1D	.	1d	.	.	.
.	.	.	.	2B/	.
1C	.	1G	.	1c	.
=138-	=138-	=138-	=138-	=138-	=138-
1r	.	2A/	.	2F/	.
.	.	1c	.	2A/	.
1G	.	.	.	1G	.
.	.	2B/	.	.	.
=139-	=139-	=139-	=139-	=139-	=139-
2A\	.	2c/	.	1r	.
1G	.	2e	.	.	.
*	*	*custos:d	*	*	*
!	!	!LO:LB:g=original	!	!	!
.	.	2d\	.	1g	.
2E/	.	1c	.	.	.
=140-	=140-	=140-	=140-	=140-	=140-
2F/	.	.	.	2a\	.
2C/	.	2e\	.	2g\	.
*custos:D	*	*	*	*	*
!LO:LB:g=original	!	!	!	!	!
4D/	.	2d\	.	1f	.
4E/	.	.	.	.	.
4F\	.	1c	.	.	.
4G\	.	.	.	.	.
=141-	=141-	=141-	=141-	=141-	=141-
2A\	.	.	.	2e/	.
*	*	*	*	*custos:f	*
!	!	!	!	!LO:LB:g=original	!
2F/	.	4B/	.	2f\	.
.	.	4A/	.	.	.
1E	.	2B/	.	2g\	.
.	.	2c\	.	2e/	.
=142-	=142-	=142-	=142-	=142-	=142-
1D	.	1d	.	2.f\	.
.	.	.	.	4e/	.
*lig	*	*lig	*	*	*
1F	.	1A	.	2c/	.
.	.	.	.	2d/	.
=143-	=143-	=143-	=143-	=143-	=143-
1E	.	1B	.	2.e/	.
.	.	.	.	4d/	.
*Xlig	*	*Xlig	*	*	*
2AA/	.	[1A;<l	.	4e/	.
.	.	.	.	4c/	.
1D	.	.	.	2.f\	.
=144-	=144-	=144-	=144-	=144-	=144-
.	.	00A]	.	.	.
.	.	.	.	4e/	.
2C/	.	.	.	1e	.
1D	.	.	.	.	.
.	.	.	.	2d/	.
=145-	=145-	=145-	=145-	=145-	=145-
0AA/l;>	-de	.	.	0e;;l	-de
=-	=-	=-	=-	=-	=-
*-	*-	*-	*-	*-	*-
!!!system-decoration: [(g1)]
!!!RDF**kern: > = above
!!!RDF**kern: < = below
!!!RDF**kern: l = terminal long
!!!ENC: Berenika Jozajtis
!!!END: 2022-01-20
!!!EED: Jędrzej Mróz
!!!EEV: 2022-01-25
!!!YEC: Copyright 2022 Narodowy Instytut Fryderyka Chopina (https://polishscores.org)
!!!YEM: Licence CC BY 4.0 (https://creativecommons.org/licenses/by/4.0)
